X:325
T:Anita's Jig
T:Our Lady of Perpetual Groove
M:6/8
L:1/8
C:© Paul Gitlitz 2011
N: Written for Anita Anderson.
K:A
"A"EAA "D"FAA|"E"Gce "F#m"fec|"D"dfa "C#m"gfe|"D"fdc "E"BAG|!
"A"ABA "C#m"cAd|eag "D"d2d|"A"cag "F#m"fdc|1"E"BAG "A"A3:|2"E"BAG "A"A2a|!
|:"D"f2d afd|"Bm"fba fed|"C#m"cfg agf|c2e "E"cB2|!
"A"ABA "F#m"cAd|"C#m"eag "D"d2e|"E"ega bge|dBe  "A"A3:|]
